X: 26053
T: McCaigue's
R: waltz
M: 3/4
K: Aminor
|:EG|A4 B2|c4 B2|A2 AB AG|E4 AB|
c4 B2|c4 d2|e6|e4 cd|
e4 a2|g2 ga g2|e4 d2|e4 ed|
[1 c<A A4|G4 E2|G6|G4 EG:|
[2 c<A A4|A4 G2|A6|A6||
|:eg|a6|a4 g2|e4 d2|e4 e<d|
c4 B2|c4 d2|e6|e4 cd|
e4 a2|g2 ga g2|e4 d2|e4 e<d|
c<A A4|G4 E2|G6|G4 EG||
A4 B2|c4 B2|A2 AB AG|E4 AB|
c4 B2|c4 d2|e6|e4 cd|
e4 a2|g2 ga g2|e4 d2|e4 e<d|
c<A A4|A4 G2|A6|A6||

